app/images/interrosplat.svg

<svg version="1.1" xmlns="http://www.w3.org/2000/svg">
    <style>
        .interrosplat {
            fill: none;
            stroke: #222;
            stroke-width: 25px;
            stroke-opacity: 1;
        }
    </style>
    <path
        class="interrosplat medium"
        d="
        M 61.73520170432002,
          125.99653861870459
        A 100,
          100,
          0,
          1,
          1,
          183.33333333333331,
          267.28090415820634
        A 50,
          50,
          0,
          0,
          0,
          150,
          314.4213562373095
        L 150,
          326.9213562373095
        L 250,
          326.9213562373095
        L 250,
          276.9213562373095
        A 50,
          50,
          0,
          1,
          1,
          300,
          326.9213562373095
        L 250,
          326.9213562373095
        L 250,
          476.9213562373095
        A 50,
          50,
          0,
          1,
          0,
          300,
          426.9213562373095
        L 250,
          426.9213562373095
        M 162.5,
          414.4213562373095
        L 150,
          414.4213562373095
        A 12.5,
          12.5,
          0,
          1,
          0,
          162.5,
          426.9213562373095
        L 162.5,
          414.4213562373095Z"
    ></path>
</svg>

<svg xmlns="http://www.w3.org/2000/svg">
    <style>
        .interrosplat {
            fill: none;
            stroke: #222;
            stroke-width: 25px;
            stroke-opacity: 1;
        }
    </style>
    <path
        class="interrosplat medium"
        d="M 61.735 125.997
           a 100 100 0 1 1 121.598 141.284 50 50 0 0 0-33.333 47.14
           v 12.5h100
           v -50
           a 50 50 0 1 1 50 50
           h -50
           v 150
           a 50 50 0 1 0 50-50
           h -50
           m -87.5-12.5
           h -12.5
           a 12.5 12.5 0 1 0 12.5 12.5
           v -12.5
           z"
    />
</svg>
